X:83
%%etbk:tnset id:28,pos:1,rep:3x,ant:
%%etbk:wsite http://www.thesession.org/tunes/display/539
%%etbk:video src:ytube,cde:-csPt2ZlFF0,desc:
%%etbk:color #f5f594
%%etbk:pldat 2016-09-16T17:23,2016-09-13T16:50,2016-09-11T16:32,2016-08-03T17:08,2014-11-18T16:46,2014-05-02T17:20,2014-02-18T17:50,2014-02-09T11:28,2013-11-11T18:17,2013-11-10T15:10
T: Farewell To Milltown
Z: Piano Box Version by Martin Fleischmann
H: Created 2013-02-19 /  Last Modified 2016-08-03
M: 4/4
L: 1/8
R: reel
K: Gdor
|:!1!D!3!GG!2!F !3!G!2!G!3!GA|!5!B!3!GGF GF!1!D!2!E|!3!F2!1!C!3!F !2!D!3!F!1!CF|DFFG FDCF|
!1!D!3!GGF G3A|BGGF GF!1!D!2!E|!1!F2!4!cF !5!dF!4!cF|1 !2!AdcA !1!G2!3!GF :|2 !2!AdcA !1!GABc|
|:!1!d!3!g!3!g!2!f !3!ggga|bggf gfde|!3!f2 fe fccc|fgaf gf!1!d!2!c|
!1!d!3!ggf g3a|bggf gfd!4!e|!5!f3!3!d !3!d!2!c!1!A!2!G|1!1!F!5!d!4!c!2!A !1!GABc:|2!1!FdcA G2GF|


